X:1
T:Untitled Hornpipe
R:Reel
M:4/4
K:D
C:Ed Yother
L:1/8
ag | (3fgf ef decd | =cAGB A2 (3AB^c | dBG=c AFDF | ABAF G2ag |
(3fgf ef decd | =cAGB A2 (3AB^c | dBGB dgae | fgaf g2 :|
|:gf | (3efe ef gege | edBc d2=cB | (3ABA AB =cAFG | AB=c^c d2gf |
(3efe ef gege | edBc d2=cB | (3ABA AB =cAFD | GBAF G2 :|
